actions/48/object-rotate-left.svg

<?xml version="1.0" encoding="UTF-8" standalone="no"?>
<!-- Created with Inkscape (http://www.inkscape.org/) -->

<svg
   xmlns:dc="http://purl.org/dc/elements/1.1/"
   xmlns:cc="http://creativecommons.org/ns#"
   xmlns:rdf="http://www.w3.org/1999/02/22-rdf-syntax-ns#"
   xmlns:svg="http://www.w3.org/2000/svg"
   xmlns="http://www.w3.org/2000/svg"
   xmlns:xlink="http://www.w3.org/1999/xlink"
   xmlns:inkscape="http://www.inkscape.org/namespaces/inkscape"
   version="1.0"
   width="48"
   height="48"
   id="svg3349">
  <defs
     id="defs3351">
    <linearGradient
       id="linearGradient8838">
      <stop
         id="stop8840"
         style="stop-color:#000000;stop-opacity:1"
         offset="0" />
      <stop
         id="stop8842"
         style="stop-color:#000000;stop-opacity:0"
         offset="1" />
    </linearGradient>
    <linearGradient
       id="linearGradient3533">
      <stop
         id="stop3535"
         style="stop-color:#c1b0e6;stop-opacity:1"
         offset="0" />
      <stop
         id="stop3545"
         style="stop-color:#9c83d5;stop-opacity:1"
         offset="1" />
    </linearGradient>
    <linearGradient
       id="linearGradient3266">
      <stop
         id="stop3268"
         style="stop-color:#7653c6;stop-opacity:1"
         offset="0" />
      <stop
         id="stop3270"
         style="stop-color:#683fc5;stop-opacity:0"
         offset="1" />
    </linearGradient>
    <linearGradient
       id="linearGradient3276">
      <stop
         id="stop3278"
         style="stop-color:#9c83d5;stop-opacity:1"
         offset="0" />
      <stop
         id="stop3280"
         style="stop-color:#9c83d5;stop-opacity:0"
         offset="1" />
    </linearGradient>
    <linearGradient
       id="linearGradient4873">
      <stop
         id="stop4875"
         style="stop-color:#ffffff;stop-opacity:1"
         offset="0" />
      <stop
         id="stop4877"
         style="stop-color:#ffffff;stop-opacity:0"
         offset="1" />
    </linearGradient>
    <linearGradient
       id="linearGradient3319">
      <stop
         id="stop3321"
         style="stop-color:#ffffff;stop-opacity:0"
         offset="0" />
      <stop
         id="stop3323"
         style="stop-color:#ffffff;stop-opacity:0.27472529"
         offset="0.63129705" />
      <stop
         id="stop3325"
         style="stop-color:#ffffff;stop-opacity:0"
         offset="1" />
    </linearGradient>
    <radialGradient
       cx="62.625"
       cy="4.625"
       r="10.625"
       fx="62.625"
       fy="4.625"
       id="radialGradient3400"
       xlink:href="#linearGradient8838"
       gradientUnits="userSpaceOnUse"
       gradientTransform="matrix(1,0,0,0.341176,0,3.047059)" />
    <linearGradient
       x1="28.116938"
       y1="41.67448"
       x2="39.686337"
       y2="28.50532"
       id="linearGradient2417"
       xlink:href="#linearGradient3319"
       gradientUnits="userSpaceOnUse"
       gradientTransform="matrix(-0.9729387,0.05855337,0.05744379,0.9544973,45.178181,3.9296356)" />
    <linearGradient
       x1="31.226292"
       y1="34.600941"
       x2="34.96563"
       y2="26.842505"
       id="linearGradient2423"
       xlink:href="#linearGradient3276"
       gradientUnits="userSpaceOnUse"
       gradientTransform="matrix(-1.0194607,0.0613533,0.0601903,1.0001376,45.295514,1.0170556)" />
    <linearGradient
       x1="33.686768"
       y1="35.773647"
       x2="37.039948"
       y2="29.856804"
       id="linearGradient2425"
       xlink:href="#linearGradient3266"
       gradientUnits="userSpaceOnUse"
       gradientTransform="matrix(-1.0194607,0.0613533,0.0601903,1.0001376,45.295514,1.0170556)" />
    <linearGradient
       x1="20.137201"
       y1="4.4757133"
       x2="16.597107"
       y2="17.94278"
       id="linearGradient2428"
       xlink:href="#linearGradient3533"
       gradientUnits="userSpaceOnUse"
       gradientTransform="matrix(-0.6892164,-0.6892162,-0.6761527,0.6761527,55.51011,28.644755)" />
    <linearGradient
       x1="32.325527"
       y1="5.0201149"
       x2="22.245434"
       y2="43.366352"
       id="linearGradient2436"
       xlink:href="#linearGradient4873"
       gradientUnits="userSpaceOnUse"
       gradientTransform="matrix(-0.6892164,-0.6892162,-0.6761527,0.6761527,55.51011,28.644755)" />
  </defs>
  <metadata
     id="metadata3354">
    <rdf:RDF>
      <cc:Work
         rdf:about="">
        <dc:format>image/svg+xml</dc:format>
        <dc:type
           rdf:resource="http://purl.org/dc/dcmitype/StillImage" />
      </cc:Work>
    </rdf:RDF>
  </metadata>
  <g
     id="layer1">
    <path
       d="m 73.25,4.625 a 10.625,3.625 0 1 1 -21.25,0 10.625,3.625 0 1 1 21.25,0 z"
       transform="matrix(-2.0703833,0,0,2.4825129,153.79371,27.519268)"
       id="path8836"
       style="opacity:0.4;fill:url(#radialGradient3400);fill-opacity:1;fill-rule:evenodd;stroke:none;stroke-width:0.99999988;marker:none;visibility:visible;display:inline;overflow:visible" />
    <path
       d="m 23.145229,37.634209 c 2.257232,0.131721 5.717538,-0.686198 7.811459,-2.780117 3.49532,-3.49532 4.317218,-11.773146 0.03576,-15.923653 -1.733556,-1.680532 -5.850435,-3.861438 -8.236871,-3.927174 l -0.02588,5.999407 -12.193108,-9.617617 c 0,0 12.193108,-10.3804058 12.193108,-10.3804058 l 0.02808,5.6445851 c 5.259687,0.096267 10.241614,1.8391042 14.236648,5.7487817 8.127167,7.953524 8.114119,20.791703 0.35002,28.733587 -3.970511,4.061428 -9.171384,5.997717 -14.392779,5.856557"
       inkscape:connector-curvature="0"
       id="path3372"
       style="fill:url(#linearGradient2428);fill-opacity:1;stroke:#7653c6;stroke-width:1.00474763;stroke-linecap:butt;stroke-linejoin:round;stroke-miterlimit:4;stroke-opacity:1;stroke-dasharray:none" />
    <path
       d="M 23.858698,46.925838 C 14.373567,47.599531 3.0999644,41.00733 2.3685954,28.569902 l 8.7368286,1.151728 c 0.490349,5.062027 7.757644,8.631776 12.146196,8.011866"
       inkscape:connector-curvature="0"
       id="path3453"
       style="fill:url(#linearGradient2423);fill-opacity:1;stroke:url(#linearGradient2425);stroke-width:1.00474763;stroke-linecap:butt;stroke-linejoin:miter;stroke-miterlimit:4;stroke-opacity:1;stroke-dasharray:none" />
    <path
       d="m 22.15708,38.846711 c 1.754983,0 3.748305,0.09598 5.421215,-0.8979 2.962875,-0.970344 5.418759,-3.259358 6.478347,-6.205901 1.766403,-4.579079 1.142423,-10.443921 -2.571039,-13.898283 -2.583482,-2.450739 -6.185255,-3.447861 -9.673107,-3.563377 -0.07491,1.078541 -0.164902,3.117628 -0.164902,4.563212 C 17.772369,15.775355 14.600647,13.313425 12.16438,11.31199 15.131115,9 19.010298,5.5620062 21.719624,3 c 0,1.2452387 0.07035,2.6075896 0.09287,3.9244114 -0.421741,1.5253785 1.5989,0.6139414 2.463105,0.9581614 5.423828,0.3937811 10.802621,2.9192862 14.01556,7.4046502 4.924572,6.402042 5.130273,15.902167 0.554718,22.543956 C 35.355928,42.987309 29.214577,46.588849 22.874996,46"
       inkscape:connector-curvature="0"
       id="path2431"
       style="opacity:0.4;fill:none;stroke:url(#linearGradient2436);stroke-width:1.00474763;stroke-linecap:butt;stroke-linejoin:miter;stroke-miterlimit:4;stroke-opacity:1;stroke-dasharray:none" />
    <path
       d="M 21.15194,45.838626 C 15.809521,46.170989 4.2324044,40.559418 3.5047584,28.468642 l 5.534019,-1.805866 c 0,7.129818 7.1616506,11.970473 13.3741196,12.102346"
       inkscape:connector-curvature="0"
       id="path2557"
       style="fill:none;stroke:url(#linearGradient2417);stroke-width:1.00474763;stroke-linecap:butt;stroke-linejoin:round;stroke-miterlimit:4;stroke-opacity:1;stroke-dasharray:none" />
    <rect
       width="7.4166722"
       height="5.662292"
       x="-26.291956"
       y="39.289722"
       transform="scale(-1,1)"
       id="rect3290"
       style="fill:#9c83d5;fill-opacity:1;stroke:none" />
    <path
       d="m 13.751634,13.915468 a 1.1787115,1.1787115 0 1 1 -2.357423,0 1.1787115,1.1787115 0 1 1 2.357423,0 z"
       transform="matrix(-1.9998021,0,0,1.9998021,47.922013,-0.1835916)"
       id="path3347"
       style="fill:#a58ed9;fill-opacity:1;stroke:#7653c6;stroke-width:0.50004947;stroke-linecap:round;stroke-linejoin:round;stroke-miterlimit:4;stroke-opacity:1;stroke-dasharray:none;stroke-dashoffset:0" />
  </g>
</svg>

<?xml version="1.0" encoding="UTF-8" standalone="no"?>
<!-- Created with Inkscape (http://www.inkscape.org/) -->
<svg
   xmlns:dc="http://purl.org/dc/elements/1.1/"
   xmlns:cc="http://creativecommons.org/ns#"
   xmlns:rdf="http://www.w3.org/1999/02/22-rdf-syntax-ns#"
   xmlns:svg="http://www.w3.org/2000/svg"
   xmlns="http://www.w3.org/2000/svg"
   xmlns:xlink="http://www.w3.org/1999/xlink"
   xmlns:sodipodi="http://sodipodi.sourceforge.net/DTD/sodipodi-0.dtd"
   xmlns:inkscape="http://www.inkscape.org/namespaces/inkscape"
   width="48"
   height="48"
   id="svg3349"
   sodipodi:version="0.32"
   inkscape:version="0.46"
   version="1.0"
   sodipodi:docname="object-rotate-left.svg"
   inkscape:output_extension="org.inkscape.output.svg.inkscape">
  <defs
     id="defs3351">
    <linearGradient
       inkscape:collect="always"
       id="linearGradient8838">
      <stop
         style="stop-color:#000000;stop-opacity:1;"
         offset="0"
         id="stop8840" />
      <stop
         style="stop-color:#000000;stop-opacity:0;"
         offset="1"
         id="stop8842" />
    </linearGradient>
    <linearGradient
       id="linearGradient3533">
      <stop
         id="stop3535"
         style="stop-color:#c1b0e6;stop-opacity:1;"
         offset="0" />
      <stop
         id="stop3545"
         style="stop-color:#9c83d5;stop-opacity:1;"
         offset="1" />
    </linearGradient>
    <linearGradient
       id="linearGradient3266">
      <stop
         style="stop-color:#7653c6;stop-opacity:1;"
         offset="0"
         id="stop3268" />
      <stop
         style="stop-color:#683fc5;stop-opacity:0;"
         offset="1"
         id="stop3270" />
    </linearGradient>
    <linearGradient
       id="linearGradient3276">
      <stop
         style="stop-color:#9c83d5;stop-opacity:1;"
         offset="0"
         id="stop3278" />
      <stop
         style="stop-color:#9c83d5;stop-opacity:0;"
         offset="1"
         id="stop3280" />
    </linearGradient>
    <linearGradient
       id="linearGradient4873"
       inkscape:collect="always">
      <stop
         id="stop4875"
         offset="0"
         style="stop-color:#ffffff;stop-opacity:1;" />
      <stop
         id="stop4877"
         offset="1"
         style="stop-color:#ffffff;stop-opacity:0;" />
    </linearGradient>
    <linearGradient
       id="linearGradient3319">
      <stop
         style="stop-color:#ffffff;stop-opacity:0;"
         offset="0"
         id="stop3321" />
      <stop
         id="stop3323"
         offset="0.63129705"
         style="stop-color:#ffffff;stop-opacity:0.27472529" />
      <stop
         style="stop-color:#ffffff;stop-opacity:0;"
         offset="1"
         id="stop3325" />
    </linearGradient>
    <radialGradient
       inkscape:collect="always"
       xlink:href="#linearGradient8838"
       id="radialGradient3400"
       gradientUnits="userSpaceOnUse"
       gradientTransform="matrix(1,0,0,0.341176,0,3.047059)"
       cx="62.625"
       cy="4.625"
       fx="62.625"
       fy="4.625"
       r="10.625" />
    <linearGradient
       inkscape:collect="always"
       xlink:href="#linearGradient3319"
       id="linearGradient2417"
       gradientUnits="userSpaceOnUse"
       gradientTransform="matrix(-0.9729387,5.855337e-2,5.7443789e-2,0.9544973,45.178181,3.9296356)"
       x1="28.116938"
       y1="41.67448"
       x2="39.686337"
       y2="28.50532" />
    <linearGradient
       inkscape:collect="always"
       xlink:href="#linearGradient3276"
       id="linearGradient2423"
       gradientUnits="userSpaceOnUse"
       gradientTransform="matrix(-1.0194607,6.13533e-2,6.0190298e-2,1.0001376,45.295514,1.0170556)"
       x1="31.226292"
       y1="34.600941"
       x2="34.96563"
       y2="26.842505" />
    <linearGradient
       inkscape:collect="always"
       xlink:href="#linearGradient3266"
       id="linearGradient2425"
       gradientUnits="userSpaceOnUse"
       gradientTransform="matrix(-1.0194607,6.13533e-2,6.0190298e-2,1.0001376,45.295514,1.0170556)"
       x1="33.686768"
       y1="35.773647"
       x2="37.039948"
       y2="29.856804" />
    <linearGradient
       inkscape:collect="always"
       xlink:href="#linearGradient3533"
       id="linearGradient2428"
       gradientUnits="userSpaceOnUse"
       gradientTransform="matrix(-0.6892164,-0.6892162,-0.6761527,0.6761527,55.51011,28.644755)"
       x1="20.137201"
       y1="4.4757133"
       x2="16.597107"
       y2="17.94278" />
    <linearGradient
       inkscape:collect="always"
       xlink:href="#linearGradient4873"
       id="linearGradient2436"
       gradientUnits="userSpaceOnUse"
       gradientTransform="matrix(-0.6892164,-0.6892162,-0.6761527,0.6761527,55.51011,28.644755)"
       x1="32.325527"
       y1="5.0201149"
       x2="22.245434"
       y2="43.366352" />
  </defs>
  <sodipodi:namedview
     id="base"
     pagecolor="#ffffff"
     bordercolor="#666666"
     borderopacity="1.0"
     inkscape:pageopacity="0.0"
     inkscape:pageshadow="2"
     inkscape:zoom="6.0833333"
     inkscape:cx="24"
     inkscape:cy="24"
     inkscape:current-layer="layer1"
     showgrid="true"
     inkscape:grid-bbox="true"
     inkscape:document-units="px"
     inkscape:window-width="1440"
     inkscape:window-height="787"
     inkscape:window-x="0"
     inkscape:window-y="22">
    <inkscape:grid
       type="xygrid"
       id="grid3412"
       visible="true"
       enabled="true" />
  </sodipodi:namedview>
  <metadata
     id="metadata3354">
    <rdf:RDF>
      <cc:Work
         rdf:about="">
        <dc:format>image/svg+xml</dc:format>
        <dc:type
           rdf:resource="http://purl.org/dc/dcmitype/StillImage" />
      </cc:Work>
    </rdf:RDF>
  </metadata>
  <g
     id="layer1"
     inkscape:label="Layer 1"
     inkscape:groupmode="layer">
    <path
       transform="matrix(-2.0703833,0,0,2.4825129,153.79371,27.519268)"
       d="M 73.25,4.625 A 10.625,3.625 0 1 1 52,4.625 A 10.625,3.625 0 1 1 73.25,4.625 z"
       sodipodi:ry="3.625"
       sodipodi:rx="10.625"
       sodipodi:cy="4.625"
       sodipodi:cx="62.625"
       id="path8836"
       style="opacity:0.4;fill:url(#radialGradient3400);fill-opacity:1;fill-rule:evenodd;stroke:none;stroke-width:0.99999988;stroke-linecap:butt;stroke-linejoin:round;marker:none;marker-start:none;marker-mid:none;marker-end:none;stroke-miterlimit:4;stroke-dasharray:none;stroke-dashoffset:0;stroke-opacity:1;visibility:visible;display:inline;overflow:visible"
       sodipodi:type="arc" />
    <path
       id="path3372"
       style="fill:url(#linearGradient2428);fill-opacity:1;stroke:#7653c6;stroke-width:1.00474763;stroke-linecap:butt;stroke-linejoin:round;stroke-miterlimit:4;stroke-dasharray:none;stroke-opacity:1"
       d="M 23.145229,37.634209 C 25.402461,37.76593 28.862767,36.948011 30.956688,34.854092 C 34.452008,31.358772 35.273906,23.080946 30.992444,18.930439 C 29.258888,17.249907 25.142009,15.069001 22.755573,15.003265 L 22.729688,21.002672 L 10.53658,11.385055 C 10.53658,11.385055 22.729688,1.0046492 22.729688,1.0046492 L 22.757765,6.6492343 C 28.017452,6.7455016 32.999379,8.4883385 36.994413,12.398016 C 45.12158,20.35154 45.108532,33.189719 37.344433,41.131603 C 33.373922,45.193031 28.173049,47.12932 22.951654,46.98816"
       sodipodi:nodetypes="csscccccsss" />
    <path
       id="path3453"
       style="fill:url(#linearGradient2423);fill-opacity:1;stroke:url(#linearGradient2425);stroke-width:1.00474763;stroke-linecap:butt;stroke-linejoin:miter;stroke-miterlimit:4;stroke-dasharray:none;stroke-opacity:1"
       d="M 23.858698,46.925838 C 14.373567,47.599531 3.0999644,41.00733 2.3685954,28.569902 L 11.105424,29.72163 C 11.595773,34.783657 18.863068,38.353406 23.25162,37.733496"
       sodipodi:nodetypes="cccc"
       inkscape:transform-center-x="4.7850021"
       inkscape:transform-center-y="5.6207735" />
    <path
       style="opacity:0.4;fill:none;fill-opacity:1;stroke:url(#linearGradient2436);stroke-width:1.00474763;stroke-linecap:butt;stroke-linejoin:miter;stroke-miterlimit:4;stroke-dasharray:none;stroke-opacity:1"
       d="M 22.15708,38.846711 C 23.912063,38.846711 25.905385,38.942696 27.578295,37.948811 C 30.54117,36.978467 32.997054,34.689453 34.056642,31.74291 C 35.823045,27.163831 35.199065,21.298989 31.485603,17.844627 C 28.902121,15.393888 25.300348,14.396766 21.812496,14.28125 C 21.737591,15.359791 21.647594,17.398878 21.647594,18.844462 C 17.772369,15.775355 14.600647,13.313425 12.16438,11.31199 C 15.131115,9 19.010298,5.5620062 21.719624,3 C 21.719624,4.2452387 21.789976,5.6075896 21.812496,6.9244114 C 21.390755,8.4497899 23.411396,7.5383528 24.275601,7.8825728 C 29.699429,8.2763539 35.078222,10.801859 38.291161,15.287223 C 43.215733,21.689265 43.421434,31.18939 38.845879,37.831179 C 35.355928,42.987309 29.214577,46.588849 22.874996,46"
       id="path2431"
       sodipodi:nodetypes="ccccccccccccc" />
    <path
       id="path2557"
       style="fill:none;fill-opacity:1;stroke:url(#linearGradient2417);stroke-width:1.00474763;stroke-linecap:butt;stroke-linejoin:round;stroke-miterlimit:4;stroke-dasharray:none;stroke-opacity:1"
       d="M 21.15194,45.838626 C 15.809521,46.170989 4.2324044,40.559418 3.5047584,28.468642 L 9.0387774,26.662776 C 9.0387774,33.792594 16.200428,38.633249 22.412897,38.765122"
       sodipodi:nodetypes="cccc"
       inkscape:transform-center-x="4.2756623"
       inkscape:transform-center-y="5.3090346" />
    <rect
       style="fill:#9c83d5;fill-opacity:1;stroke:none;stroke-width:1;stroke-linecap:butt;stroke-linejoin:miter;stroke-miterlimit:4;stroke-dasharray:none;stroke-dashoffset:0;stroke-opacity:1"
       id="rect3290"
       width="7.4166722"
       height="5.662292"
       x="-26.291956"
       y="39.289722"
       transform="scale(-1,1)" />
    <path
       sodipodi:type="arc"
       style="fill:#a58ed9;fill-opacity:1;stroke:#7653c6;stroke-width:0.50004947;stroke-linecap:round;stroke-linejoin:round;stroke-miterlimit:4;stroke-dasharray:none;stroke-dashoffset:0;stroke-opacity:1"
       id="path3347"
       sodipodi:cx="12.572923"
       sodipodi:cy="13.915468"
       sodipodi:rx="1.1787115"
       sodipodi:ry="1.1787115"
       d="M 13.751634,13.915468 A 1.1787115,1.1787115 0 1 1 11.394211,13.915468 A 1.1787115,1.1787115 0 1 1 13.751634,13.915468 z"
       transform="matrix(-1.9998021,0,0,1.9998021,47.922013,-0.1835916)" />
  </g>
</svg>
